X:1

T:Road to Berwick, The

L:1/8

M:C|

K:D

F<DAF BGAF|DAdf e2E2|F<DAF BGAF|Adce d2D2:|

f/g/a fd bgag|f/g/a fd b2 eg|f/g/a fd bgag|fdec d2D2|f/g/a fd bgag|

f/g/a fd b2 eg|fdge afbg|fdec d2D2||

           

ROAD TO BOSTON. AKA and see "On the Road to Boston," "Boston March," "Road to London." American, Reel. USA; New England, Pennsylvania. D Major. Standard tuning. AB (Silberberg): AABB (most versions): AA'BB' (Phillips). "This old fifers' march is known by the above name in the Northeast as well as in Pennsylvania. A New England game song beginning:

***

It's a long road to Boston, boys, (ter)

Oh when shall we get there?
***

may possibly account for this title; if so, the fact emphasizes the close connection between playparty and dance tunes to which we have already referred (see Introduction). Mr. Devan stated that there were words known to the tune in Fayette County, but he could not recall them. They may or may not have included those just quoted" (Bayard, 1944). In his 1981 collection Bayard calls the tune international, at least the first strain, and probably quite old. Close variants from the Continent appear in Bouillet, Album Auvergnat, pg. 30, as "Bourree d'Aigueperse," and in Quellien, "Chansons et Danses des Bretons," (p. 287, No. 9) {Ed.--This bourree also appears in Stevens Massif collection, collected in the Auvergne region of Central France); while the second part of an Irish tune described as a 'quadrille' corresponds to the first part of "Road to Boston" (see Joyce 1909, No. 277). A southern variant appears in Ford, p. 174, as "Exhibition March No. 2."./ One of the tunes identified by 93 yr. old Benjamin Smith of Needham, Mass., in 1853 as the most popular American army tunes of the Revolutionary War; until their musicians learned "Yankee Doodle" and "The White Cockade" from hearing the British playing them in the distance (Winstock, 1970; pg. 71). Sources for notated versions: whistled by J.W. Devan (Connellsville, Pa., 1943; as he formerly played it on the fife) [Bayard, 1944]; Wilbur Neal (Jefferson County, Pa., 1948), James Morris (elderly fiddler from Greene County, Pa., 1930's), Hiram Horner (fifer from Westmoreland and Fayette Counties, Pa., 1960), Samuel Wiltrout (Fayette and Westmoreland Counties, Pa., 1944), Marion Yoders (fifer and fiddler from Greene County, Pa., 1960) [Bayard, 1981]; Rodney Miller (N.H.) [Phillips]; Warren Argo [Silberberg]. American Veteran Fifer, 1927; No. 56. Bayard (Hill Country Tunes), 1944; No. 19. Bayard (Dance to the Fiddle), 1981; No. 197, pgs. 153‑154. Cazden, 1955; pg. 26. Cushing, 1805; No. 35. Hazeltine, 1820; pg. 35. Messer (Way Down East), 1939; No. 32. Miller & Perron (New England Fiddler’s Repertoire), 1983; No. 53. Ostling, pg. 21. Phillips (Traditional American Fiddle Tunes), vol. 1, 1994; pg. 199. Silberberg (Tunes I Learned at Tractor Tavern), 2002; pg. 130. Sweet (Fifer’s Delight), 1965/1981; pg. 79. Alcazar Dance Series FR 204, Rodney Miller ‑ "New England Chestnuts 2" (1981). North Star NS0038, "The Village Green: Dance Music of Old Sturbridge Village."

